Simply-Blue-Circles/scalable/apps/atom-beta.svg

<svg xmlns="http://www.w3.org/2000/svg" width="48" height="48" viewBox="0 0 12.7 12.7"><path d="M6.34.07a6.29 6.29 0 0 0-6.29 6.3 6.29 6.29 0 0 0 6.3 6.28 6.29 6.29 0 0 0 6.28-6.29A6.29 6.29 0 0 0 6.34.07zm-.01.94a5.4 5.4 0 0 1 5.4 5.4 5.4 5.4 0 0 1-5.4 5.41 5.4 5.4 0 0 1-5.41-5.4A5.4 5.4 0 0 1 6.32 1zm0 .53a4.88 4.88 0 0 0-4.88 4.88 4.88 4.88 0 0 0 4.88 4.87 4.88 4.88 0 0 0 4.87-4.87 4.88 4.88 0 0 0-4.87-4.88zm.02.67c.55 0 1.02.7 1.3 1.83 1.09-.35 1.93-.33 2.23.15.23.37.06.94-.5 1.62-.15.2-.32.38-.5.55a7.14 7.14 0 0 1 .2.22.49.49 0 0 1 .7.44.48.48 0 0 1-.1.29c.3.5.38.93.2 1.23-.17.26-.5.38-.94.38a4.32 4.32 0 0 1-1.3-.24c-.27 1.12-.74 1.82-1.3 1.82-.55 0-1.02-.7-1.3-1.83l-.23.08a.49.49 0 0 1-.93.17h-.14c-.56 0-.81-.2-.92-.39-.23-.37-.06-.94.49-1.62a6.33 6.33 0 0 1 .51-.55 6.24 6.24 0 0 1-.51-.56c-.55-.67-.72-1.25-.5-1.63.3-.47 1.15-.5 2.25-.13a6.4 6.4 0 0 1 .1-.37.49.49 0 0 1 .3-.86h.07c.3-.5.6-.6.82-.6zm0 .29c-.18 0-.38.15-.55.43a.49.49 0 0 1-.33.85h-.04l-.1.36c.35.13.69.28 1.02.45.32-.17.66-.33 1-.46-.24-1.01-.63-1.63-1-1.63zm2.62 1.59c-.33 0-.76.08-1.26.24.07.4.13.79.15 1.18.28.2.54.42.8.64.18-.16.34-.34.5-.53.45-.55.62-1.04.47-1.29-.1-.16-.33-.24-.66-.24zm-5.24 0c-.33 0-.56.09-.66.24-.16.26.02.74.46 1.29a6.1 6.1 0 0 0 .5.54c.26-.23.53-.45.8-.65A9.57 9.57 0 0 1 5 4.33c-.5-.16-.93-.24-1.26-.24zm3.69.34c-.24.09-.5.2-.75.32a13.26 13.26 0 0 1 .49.3 10 10 0 0 1 .39.24c-.03-.3-.08-.6-.13-.86zm-2.15 0c-.05.27-.1.56-.12.86a11.7 11.7 0 0 1 .88-.53 8.97 8.97 0 0 0-.76-.33zm1.08.49a10.97 10.97 0 0 0-1.23.75 11.2 11.2 0 0 0 0 1.37 10.56 10.56 0 0 0 1.23.76 9.87 9.87 0 0 0 1.23-.76 11.24 11.24 0 0 0 0-1.37 10.54 10.54 0 0 0-1.23-.75zm0 .75a.69.69 0 0 1 0 1.37.69.69 0 1 1 0-1.37zM4.8 5.9c-.2.15-.38.3-.56.46a9.94 9.94 0 0 0 .56.46v-.46-.46zm3.07 0a11.66 11.66 0 0 1 0 .92l.56-.46c-.18-.15-.36-.31-.56-.46zm-3.85.66c-.17.17-.34.35-.5.54-.45.55-.62 1.03-.46 1.29.1.17.38.25.78.23a.49.49 0 0 1 .9-.16l.23-.08a9.5 9.5 0 0 1-.15-1.18c-.28-.2-.54-.41-.8-.64zm4.63 0c-.25.23-.52.45-.8.64-.02.4-.08.8-.15 1.18.99.33 1.72.32 1.92 0 .1-.19.04-.5-.2-.9a.47.47 0 0 1-.15.03.49.49 0 0 1-.49-.49.49.49 0 0 1 .08-.25 7.19 7.19 0 0 0-.21-.2zm-3.51.86a9.04 9.04 0 0 0 .12.87l.76-.32a41.45 41.45 0 0 0-.88-.55zm2.4 0a8.79 8.79 0 0 1-.88.54 8.73 8.73 0 0 0 .75.32c.05-.26.1-.55.13-.86zm-1.2.7c-.33.17-.67.33-1.01.45.24 1.02.64 1.64 1 1.64.38 0 .77-.6 1.02-1.63a9.5 9.5 0 0 1-1.01-.45z" fill="#2c89a0"/></svg>

<?xml version="1.0" encoding="UTF-8" standalone="no"?>
<svg
   xmlns:dc="http://purl.org/dc/elements/1.1/"
   xmlns:cc="http://creativecommons.org/ns#"
   xmlns:rdf="http://www.w3.org/1999/02/22-rdf-syntax-ns#"
   xmlns:svg="http://www.w3.org/2000/svg"
   xmlns="http://www.w3.org/2000/svg"
   xmlns:sodipodi="http://sodipodi.sourceforge.net/DTD/sodipodi-0.dtd"
   xmlns:inkscape="http://www.inkscape.org/namespaces/inkscape"
   width="48"
   height="48"
   viewBox="0 0 12.7 12.7"
   version="1.1"
   id="svg4"
   sodipodi:docname="atom-beta.svg"
   inkscape:version="0.92.4 (5da689c313, 2019-01-14)">
  <metadata
     id="metadata10">
    <rdf:RDF>
      <cc:Work
         rdf:about="">
        <dc:format>image/svg+xml</dc:format>
        <dc:type
           rdf:resource="http://purl.org/dc/dcmitype/StillImage" />
        <dc:title></dc:title>
      </cc:Work>
    </rdf:RDF>
  </metadata>
  <defs
     id="defs8" />
  <sodipodi:namedview
     pagecolor="#ffffff"
     bordercolor="#666666"
     borderopacity="1"
     objecttolerance="10"
     gridtolerance="10"
     guidetolerance="10"
     inkscape:pageopacity="0"
     inkscape:pageshadow="2"
     inkscape:window-width="1087"
     inkscape:window-height="480"
     id="namedview6"
     showgrid="false"
     inkscape:zoom="4.9166667"
     inkscape:cx="2.1355932"
     inkscape:cy="24"
     inkscape:window-x="0"
     inkscape:window-y="25"
     inkscape:window-maximized="0"
     inkscape:current-layer="svg4" />
  <path
     d="M 6.34,0.07 A 6.29,6.29 0 0 0 0.05,6.37 6.29,6.29 0 0 0 6.35,12.65 6.29,6.29 0 0 0 12.63,6.36 6.29,6.29 0 0 0 6.34,0.07 Z M 6.33,1.01 a 5.4,5.4 0 0 1 5.4,5.4 5.4,5.4 0 0 1 -5.4,5.41 A 5.4,5.4 0 0 1 0.92,6.42 5.4,5.4 0 0 1 6.32,1 Z m 0,0.53 A 4.88,4.88 0 0 0 1.45,6.42 4.88,4.88 0 0 0 6.33,11.29 4.88,4.88 0 0 0 11.2,6.42 4.88,4.88 0 0 0 6.33,1.54 Z m 0.02,0.67 c 0.55,0 1.02,0.7 1.3,1.83 1.09,-0.35 1.93,-0.33 2.23,0.15 0.23,0.37 0.06,0.94 -0.5,1.62 -0.15,0.2 -0.32,0.38 -0.5,0.55 a 7.14,7.14 0 0 1 0.2,0.22 0.49,0.49 0 0 1 0.7,0.44 0.48,0.48 0 0 1 -0.1,0.29 c 0.3,0.5 0.38,0.93 0.2,1.23 C 9.71,8.8 9.38,8.92 8.94,8.92 A 4.32,4.32 0 0 1 7.64,8.68 C 7.37,9.8 6.9,10.5 6.34,10.5 5.79,10.5 5.32,9.8 5.04,8.67 L 4.81,8.75 A 0.49,0.49 0 0 1 3.88,8.92 H 3.74 C 3.18,8.92 2.93,8.72 2.82,8.53 2.59,8.16 2.76,7.59 3.31,6.91 A 6.33,6.33 0 0 1 3.82,6.36 6.24,6.24 0 0 1 3.31,5.8 C 2.76,5.13 2.59,4.55 2.81,4.17 3.11,3.7 3.96,3.67 5.06,4.04 a 6.4,6.4 0 0 1 0.1,-0.37 0.49,0.49 0 0 1 0.3,-0.86 h 0.07 c 0.3,-0.5 0.6,-0.6 0.82,-0.6 z m 0,0.29 C 6.17,2.5 5.97,2.65 5.8,2.93 A 0.49,0.49 0 0 1 5.47,3.78 H 5.43 L 5.33,4.14 C 5.68,4.27 6.02,4.42 6.35,4.59 6.67,4.42 7.01,4.26 7.35,4.13 7.11,3.12 6.72,2.5 6.35,2.5 Z M 8.97,4.09 C 8.64,4.09 8.21,4.17 7.71,4.33 7.78,4.73 7.84,5.12 7.86,5.51 8.14,5.71 8.4,5.93 8.66,6.15 8.84,5.99 9,5.81 9.16,5.62 9.61,5.07 9.78,4.58 9.63,4.33 9.53,4.17 9.3,4.09 8.97,4.09 Z m -5.24,0 C 3.4,4.09 3.17,4.18 3.07,4.33 2.91,4.59 3.09,5.07 3.53,5.62 a 6.1,6.1 0 0 0 0.5,0.54 C 4.29,5.93 4.56,5.71 4.83,5.51 A 9.57,9.57 0 0 1 5,4.33 C 4.5,4.17 4.07,4.09 3.74,4.09 Z M 7.42,4.43 C 7.18,4.52 6.92,4.63 6.67,4.75 a 13.26,13.26 0 0 1 0.49,0.3 10,10 0 0 1 0.39,0.24 C 7.52,4.99 7.47,4.69 7.42,4.43 Z m -2.15,0 C 5.22,4.7 5.17,4.99 5.15,5.29 A 11.7,11.7 0 0 1 6.03,4.76 8.97,8.97 0 0 0 5.27,4.43 Z m 1.08,0.49 a 10.97,10.97 0 0 0 -1.23,0.75 11.2,11.2 0 0 0 0,1.37 10.56,10.56 0 0 0 1.23,0.76 9.87,9.87 0 0 0 1.23,-0.76 11.24,11.24 0 0 0 0,-1.37 10.54,10.54 0 0 0 -1.23,-0.75 z m 0,0.75 a 0.69,0.69 0 0 1 0,1.37 0.69,0.69 0 1 1 0,-1.37 z M 4.8,5.9 C 4.6,6.05 4.42,6.2 4.24,6.36 A 9.94,9.94 0 0 0 4.8,6.82 V 6.36 Z m 3.07,0 a 11.66,11.66 0 0 1 0,0.92 L 8.43,6.36 C 8.25,6.21 8.07,6.05 7.87,5.9 Z M 4.02,6.56 C 3.85,6.73 3.68,6.91 3.52,7.1 3.07,7.65 2.9,8.13 3.06,8.39 3.16,8.56 3.44,8.64 3.84,8.62 A 0.49,0.49 0 0 1 4.74,8.46 L 4.97,8.38 A 9.5,9.5 0 0 1 4.82,7.2 C 4.54,7 4.28,6.79 4.02,6.56 Z m 4.63,0 C 8.4,6.79 8.13,7.01 7.85,7.2 7.83,7.6 7.77,8 7.7,8.38 8.69,8.71 9.42,8.7 9.62,8.38 9.72,8.19 9.66,7.88 9.42,7.48 A 0.47,0.47 0 0 1 9.27,7.51 0.49,0.49 0 0 1 8.78,7.02 0.49,0.49 0 0 1 8.86,6.77 7.19,7.19 0 0 0 8.65,6.57 Z M 5.14,7.42 A 9.04,9.04 0 0 0 5.26,8.29 L 6.02,7.97 A 41.45,41.45 0 0 0 5.14,7.42 Z m 2.4,0 A 8.79,8.79 0 0 1 6.66,7.96 8.73,8.73 0 0 0 7.41,8.28 C 7.46,8.02 7.51,7.73 7.54,7.42 Z m -1.2,0.7 C 6.01,8.29 5.67,8.45 5.33,8.57 c 0.24,1.02 0.64,1.64 1,1.64 0.38,0 0.77,-0.6 1.02,-1.63 A 9.5,9.5 0 0 1 6.34,8.13 Z"
     id="path2"
     inkscape:connector-curvature="0"
     style="fill:#2c89a0" />
</svg>
